X:146
T:The Comical Fellow
C:Thompson, 1776
S:Colin Hume's website,  colinhume.com  - chords can also be printed below the stave.
Q:3/8=120
M:6/8
L:1/8
K:D
P:A
|:A | "D"d2f "A"e2A | "Bm"B2d "F#m"c2F | "Em"GFG "A7"EAG | "D"FDD "/"D2A |\
"D"d2f "A"e2A | "Bm"B2d "F#m"c2F | "Em"GFG "A"EAG | "D"FDD "/"D2 :|
P:B
|: A | "D"d2d "/"d2d | "Am"=cBA "G"BGB | "E"e2e "/"e2e | "Bm"dcB "A"cAc | "D"fef "Bm"def |
"Em"gfg "A7"efg | "D"agf "/"agf | "A7"eee "/"e2a | "D"Laaa "/"La2a | "A/C#"Laaa "/"La2a | "Bm"afd "A7"Bec | "D"ddd "/"d2 :|

